X: 50
T: Mazurka in A Minor, Op. 68, No. 2
C: Frederic Chopin
%%abc-version 2.0
%%abcx-abcm2ps-target-version 5.9.1 (29 Sep 2008)
%%abc-creator hum2abc beta
%%abcx-conversion-date 2021/01/17 12:55:01
%%abc-edited-by Craig Stuart Sapp
%%abcx-initial-encoding-date 2005/03/04/
%%gracespace 0 6 6
%%humdrum-veritas 648314203
%%humdrum-veritas-data 1114369376
%%linebreak <none>
%%barnumbers 0
L: 1/4
M: 3/4
N: Derived from mazurka68-2.krn
Q: "Lento" 1/4=116
%%staves {1 2}
V: 1 clef=treble
V: 2 clef=bass
K: C
[V:1] E/<A/c// [I:setbarnb 1]| 
[V:2] z//z | 
[V:1] {/E} e/>e/c!accent!!trill!^d{/^^cd} | 
[V:2] A,,,[E,C]!accent![E,B,] | 
[V:1] e/>e/Ac | 
[V:2] A,,[E,C][E,C] | 
[V:1] B/>B/^F!trill!^G | 
[V:2] A,,[E,D][E,D] | 
[V:1] !wedge!A/z//E//!wedge!A/z//E//!wedge!A/z//c// | 
[V:2] A,,[E,C][E,C] | 
[V:1] !wedge!e/z//e//c!accent!!trill!^d | 
[V:2] A,,[E,C]!accent![E,B,] | 
[V:1] e/>e/Ac | 
[V:2] A,,[E,C][E,C] | 
[V:1] B/>B/^F!trill!^G | 
[V:2] A,,[E,D][E,D] | 
[V:1] {/A}az/> E/A3//c// | 
[V:2] A,,[E,C]z | 
[V:1] {/E} e/>e/c!trill!^d | 
[V:2] A,,,[E,C]!accent![E,B,] | 
[V:1] e/>e/Ac | 
[V:2] A,,[E,C][E,C] | 
[V:1] B/>B/^F!trill!^G | 
[V:2] A,,[E,D][E,D] | 
[V:1] !wedge!A/z//E//!wedge!A/z//E//!wedge!A/z//c// | 
[V:2] A,,[E,C][E,C] | 
[V:1] !wedge!e/z//e//c!accent!!trill!^d | 
[V:2] A,,[E,C]!accent![E,B,] | 
[V:1] e/>e/Ac | 
[V:2] A,,[E,C][E,C] | 
[V:1] B/>B/^F!trill!^G | 
[V:2] A,,[E,D][E,D] | 
[V:1] {/A}az/> =G/c3//e// ]|:  
[V:2] [A,C]zz ]|:  
[V:1] g/>g/e!accent!!trill!^f{/^ef} | 
[V:2] C,[G,E]!accent![G,^D] | 
[V:1] g/>g/=e!accent!!trill!^f | 
[V:2] C,[G,E]!accent![G,^D] | 
[V:1] g/z//g//c!accent!d | 
[V:2] C,[G,E]!accent![G,F] | 
[V:1] {/cd}e3 | 
[V:2] C,[G,E][E,^G,D] | 
[V:1] {/E} e/>e/c!accent!!trill!^d | 
[V:2] A,,,[E,C]!accent![E,B,] | 
[V:1] e/>e/Ac | 
[V:2] A,,[E,C][E,C] | 
[V:1] B/>B/^F!trill!^G | 
[V:2] A,,[E,D][E,D] | 
[V:1] A/z//E//!wedge!A/z//E//!wedge!A/z//c// | 
[V:2] A,,[E,C][E,C] | 
[V:1] e/z//e//c!accent!!trill!^d | 
[V:2] A,,[E,C]!accent![E,B,] | 
[V:1] e/>e/Ac | 
[V:2] A,,[E,C][E,C] | 
[V:1] B/>B/^F!trill!^G |[1 
[V:2] A,,[E,D][E,D] | 
[V:1] {/A}az/> =G/c3//e// :|][2 
[V:2] A,,[E,/C/] z/z :|]  
[V:1] {/A}az/> E/E3//E// | 
[V:2] A,,[E,C]z | 
[V:1]  [K:A] c/>c/EA & [CE]CC | 
[V:2]  [K:A] [A,,E,][A,,E,][A,,E,] | 
[V:1] c/>c/EA & [CE]CC | 
[V:2] [A,,E,][A,,E,][A,,E,][K:clef=treble] | 
[V:1] [c/e/]>[^B/^d/][=d3/f3/][c/e/] | 
[V:2] [C/E/]>[^B,/^D/][=D3/F3/][C/E/] & A,3 | 
[V:1] {/[^B^d]f} [c/e/]>[B/d/][=d3/f3/][c/e/] | 
[V:2] [C/E/]>[^B,/^D/][=D3/F3/][C/E/][K:clef=bass] & A,3 | 
[V:1] c/>c/EA & [CE]CC | 
[V:2] [A,,E,][A,,E,][A,,E,] | 
[V:1] c/>c/EA & [CE]CC | 
[V:2] [A,,E,][A,,E,][A,,E,] | 
[V:1] [E/c/]>[^D/^B/] {/[=D=B]}[F3/^d3/][E/c/] | 
[V:2] G,/>G,/G,2 & G,,-G,,C, | 
[V:1] [E/c/]>[^D/^B/][F^d][Ec] :|]  
[V:2] G,/>G,/G,2 & G,,-G,,C, :|]  
[V:1] =d/>d/Be & [=DF][DG][DG] | 
[V:2] [B,,B,][E,B,][E,B,] | 
[V:1] c/>c/EA & [CE]CC | 
[V:2] [A,,E,A,][A,,E,][A,,E,] | 
[V:1] B/>B/BB & [^DF][=D=F][DE] | 
[V:2] [A,,F,][A,,G,][A,,G,] | 
[V:1] c/>c/EA & [CE]CC | 
[V:2] [A,,A,][A,,E,][A,,E,] | 
[V:1] d/>d/Be & [DA][DA][DG] | 
[V:2] [A,,F,][A,,=F,][A,,E,] | 
[V:1] c/>c/EA & [CE]C[CE] | 
[V:2] [A,,E,][A,,E,][A,,E,] | 
[V:1] B/>B/BB & [^DF][=D=F][DE] | 
[V:2] [A,,^F,][A,,G,][A,,G,] | 
[V:1] c/>c/xx & [CE][CE][CA] ||  
[V:2] [A,,A,][A,,E,][A,,E,] ||  
[V:1]  [K:C] {/E} e/>e/c!trill!^d | 
[V:2]  [K:C] A,,,[E,C][E,B,] | 
[V:1] e/>e/Ac | 
[V:2] A,,[E,C][E,C] | 
[V:1] B/>B/^F!trill!^G | 
[V:2] A,,[E,D][E,D] | 
[V:1] !wedge!A/z//E//!wedge!A/z//E//!wedge!A/z//c// | 
[V:2] A,,[E,C][E,C] | 
[V:1] !wedge!e/z//e//c!accent!!trill!^d | 
[V:2] A,,[E,C][E,B,] | 
[V:1] e/>e/Ac | 
[V:2] A,,[E,C][E,C] | 
[V:1] B/>B/^F!trill!^G | 
[V:2] A,,[E,D][E,D] | 
[V:1] {/A}az/> =G/c3//e// | 
[V:2] [A,C]zz | 
[V:1] g/>g/e!accent!!trill!^f | 
[V:2] C,[G,E]!accent![G,^D] | 
[V:1] g/>g/e!accent!!trill!^f | 
[V:2] C,[G,E]!accent![G,^D] | 
[V:1] g/z//g//cd | 
[V:2] C,[G,E]!accent![G,F] | 
[V:1] {/cd}e3 | 
[V:2] C,[G,E][E,^G,D] | 
[V:1] e/>e/c!accent!!trill!^d | 
[V:2] A,,,[E,C][E,B,] | 
[V:1] e/>e/Ac | 
[V:2] A,,[E,C][E,C] | 
[V:1] B/>B/^F!trill!^G | 
[V:2] A,,[E,D][E,D] | 
[V:1] !wedge!A/z//E//!wedge!A/z//E//!wedge!A/z//c// | 
[V:2] A,,[E,C][E,C] | 
[V:1] !wedge!e/z//e//c!accent!!trill!^d | 
[V:2] A,,[E,C][E,B,] | 
[V:1] e/>e/Ac | 
[V:2] A,,[E,C][E,C] | 
[V:1] B/>B/^F!trill!^G | 
[V:2] A,,[E,D][E,D] | 
[V:1] {/A}azz |]  
[V:2] A,,[E,C]z |]  


